!!!!SEGMENT: pl-wnifc--6439-n--004_anonim--mazur-no-4.krn
!!!cenid: 18xx:3947
!!!COM: Anonim
!!!COM-rismID: pe30004985
!!!CDT:
!!!CNT:
!!!OTL: Mazur No. 4
!!!PDT: 1827
!!!AGN:
!!!SMS-siglum: PL-Wnifc
!!!SMS-shelfmark: 6439/n
!!!SMS-shelfwork: 004 W
!!!SMS-variant:
!!!SMS-altvar:
!!!NIFC-rismSourceID: 1001011234
!!!NIFC-islandoraID: nifc:212734
!!!URL-pdf-islandora: https://repozytorium.nifc.pl/islandora/object/nifc:212734/datastream/PDF/view
!!!URL-scan: https://polish.musicsources.pl/pl/lokalizacje/galeria/druki-muzyczne/16857 @EN{Scan on Polish Music Sources Website} @PL{Skany w portalu Dziedzictwo Muzyki Polskiej w otwartym dostępie}
!!!ONB-nifc: str. 4 (skan 0003)
!!!AIN: 1 pianio 1 piano
!!!key: D
**kern	**kern
*part2	*part1
*staff2	*staff1
*I"Pianoforte	*I"Pianoforte
*I'Pf	*I'Pf
*Ipiano	*Ipianio
*ICklav	*ICklav
*clefF4	*clefG2
*k[f#c#]	*k[f#c#]
*D:	*D:
*M3/8	*M3/8
=1	=1
!	!LO:TX:a:Bi:t=Mazur\nNo 4.
8DD\ 8FF# 8AA 8D	16.dd\LL
.	32ee\K
8A\L 8d 8f#	16ff#\
.	16dd\
8A\J 8d 8f#	16gg\
.	16ff#\JJ
=2	=2
!	!LO:TUP:a
8AAA/ 8CC# 8EE 8AA	(24ee\LL
.	24ff#\
.	24ee\JJ)
8A\L 8c# 8e	(16dd\LL
.	16cc#\)
8A\J 8c# 8e	16b'\
.	16a'\JJ
=3	=3
8AAA/ 8CC# 8EE 8AA	16g#X/LL
.	16a/
8A\L 8c# 8e 8g	16b/
.	16a/
8A\J 8c# 8e 8g	16cc#/
.	16a/JJ
=4	=4
8DD/ 8FF# 8AA 8D	8f#\ 8dd
8A^\L 8d 8f#	4a\ 4dd 4ff#
8A\J 8d 8f#	.
=5	=5
8AAA/ 8CC# 8EE 8AA	16.ee\LL
.	32ff#\K
8A\L 8c# 8e	16gg\
.	16bb\
8A\J 8c# 8e	16gg\
.	16ee\JJ
=6	=6
8DD/ 8FF# 8AA 8D	16.f#\LL 16.dd
.	32a\JJk 32ee
8A\L 8d 8f#	8.dd\L 8.ff#
8A\J 8d 8f#	.
.	16dd\Jk
=7	=7
.	8qdd/
8AAA/ 8CC# 8EE 8AA	16cc#\LL
.	16b\
8A\L 8c# 8e 8g	16cc#\
.	16a\
8A\J 8c# 8e 8g	16b\
.	16cc#\JJ
=8	=8
8D\	16ee\LL
.	16dd\JJ
4d\ 4f#	4dd\
=9:|!|:	=9:|!|:
8DD\ 8FF# 8AA 8D	8aa\L
8A\L 8d 8f#	8aaT\
8A\J 8d 8f#	16ddd\L
.	16aa\JJ
!LO:LB:g=original	!LO:LB:g=original
=10	=10
8DD/ 8FF# 8AA 8D	16ff#\LL
.	16aa\JJ
8A\L 8d 8f#	8dd\L
8A\J 8d 8f#	16ff#\L
.	16dd\JJ
=11	=11
8AAA/ 8CC# 8EE 8AA	16ee\LL
.	16ff#\
8A\L 8c# 8e 8g	16gg\
.	16a\
8A\J 8c# 8e 8g	16b\
.	16cc#\JJ
=12	=12
8DD/ 8FF# 8AA 8D	16dd\LL
.	16ee\
8A\L 8d 8f#	16ff#\
.	16gg\
8A\J 8d 8f#	16gg#X\
.	16aa\JJ
=13	=13
8DD/ 8FF# 8AA 8D	16bb\LL
.	16aa\
8A\L 8d 8f#	16gg#X\
.	16aa\
8A\J 8d 8f#	16ddd\
.	16ccc#\JJ
=14	=14
.	8qccc#/
8GG\ 8BB 8E 8G	16bb\LL
.	16aa\
.	8qaa/
8G\L 8B 8e	16gg\
.	16ff#\
.	8qff#/
8G\J 8B 8e	16ee\
.	16dd\JJ
=15	=15
8AA\ 8C# 8E 8A	16cc#\LL
.	16ee\
8A\L 8c# 8e 8g	16gg\
.	16bb\
8A\J 8c# 8e 8g	16aa\
.	16cc#\JJ
=16	=16
8DD/ 8FF# 8AA 8D	(16ee\LL
.	16dd\JJ)
4A\ 4d 4f#	4dd\
=17:|!|:	=17:|!|:
8AA\ 8A	16.a\LL 16.cc#
.	32dd\JJk
8E\L 8A 8c#	16ee/LL
.	16e/
8E\J 8A 8c#	16a/
.	16cc#/JJ
=18	=18
8AA\ 8A	16.cc#\LL 16.ee
.	32a\JJk 32cc#
8E\L 8A 8c#	8.dd\L 8.ff#
8E\J 8A 8c#	.
.	16cc#\Jk 16ee
=19	=19
8EE/ 8E	8.b\L 8.dd
8E\L 8G#X 8B 8d	.
.	16dd\L 16ff#
8E\J 8G# 8B 8d	16cc#\ 16ee
.	16b\JJ 16dd
!LO:LB:g=original	!LO:LB:g=original
=20	=20
8AA\ 8A	16.a\LL 16.cc#
.	32dd\JJk
8E\L 8A 8c#	16cc#\LL 16ee
.	16ee\
8E\J 8A 8c#	16ff#\
.	16gg#X\JJ
=21	=21
8AA\ 8A	16aa\LL
.	16gg#X\JJ
.	8qbb/
8E\L 8A 8c#	16aa\LL
.	16gg#\
8E\J 8A 8c#	16aa\
.	16bb\JJ
=22	=22
8AA\ 8A	16.ccc#\LL
.	32bb\K
8E\L 8A 8c#	16.aa\
.	32gg#X\K
8E\J 8A 8c#	16.ff#\
.	32ee\JJk
=23	=23
8EE/ 8E	16dd#X\LL
.	16ee\
8E\L 8B 8d	16ff#\
.	16ee\
8E\J 8B 8d	16dd#\
.	16g#X\JJ
=24	=24
8AA\ 8A	16b\LL
.	16a\JJ
4A\ 4c#	4a/
=:|!	=:|!
*-	*-
!!!system-decoration: [(s1,s2)]
!!!ENC: Solarz Mateusz
!!!END: 2022-07-28
!!!ENC: Julita Ruszuk
!!!END: 2022-08-25
!!!YEC: Copyright 2022 Narodowy Instytut Fryderyka Chopina (https://polishscores.org)
!!!YEM: Licence CC BY 4.0 (https://creativecommons.org/licenses/by/4.0)
